svgs/sharp-regular/cowbell.svg

<svg xmlns="http://www.w3.org/2000/svg" viewBox="0 0 448 512"><!--! Font Awesome Pro 6.6.0 by @fontawesome - https://fontawesome.com License - https://fontawesome.com/license (Commercial License) Copyright 2024 Fonticons, Inc. --><path d="M128 0l24 0L296 0l24 0 0 24 0 72 64 0 54.4 272 9.6 48-49 0L49 416 0 416l9.6-48L64 96l64 0 0-72 0-24zM272 48l-96 0 0 48 96 0 0-48zM103.4 144L58.6 368l330.9 0L344.6 144l-241.3 0zM288 448c0 35.3-28.7 64-64 64s-64-28.7-64-64l128 0z"/></svg>

<svg xmlns="http://www.w3.org/2000/svg" viewBox="0 0 448 512"><!--! Font Awesome Pro 6.4.0 by @fontawesome - https://fontawesome.com License - https://fontawesome.com/license (Commercial License) Copyright 2023 Fonticons, Inc. --><path d="M128 0h24H296h24V24 96h64l54.4 272 9.6 48H399 49 0l9.6-48L64 96h64V24 0zM272 48H176V96h96V48zM103.4 144L58.6 368H389.4L344.6 144H103.4zM288 448c0 35.3-28.7 64-64 64s-64-28.7-64-64H288z"/></svg>
